src/images/header/auto-icon.svg

<svg fill="none" height="60" viewBox="0 0 48 60" width="48" xmlns="http://www.w3.org/2000/svg" xmlns:xlink="http://www.w3.org/1999/xlink"><clipPath id="a"><path d="m-14.4828 0h62.069v62.069h-62.069z"/></clipPath><g clip-path="url(#a)"><path d="m2 31.0065c.01242-1.3564.44113-2.6763 1.22813-3.7811.78701-1.1049 1.89434-1.9414 3.17223-2.3964l3.57387-9.2254c.31837-.7522.84587-1.3974 1.51987-1.8589s1.4662-.7199 2.2827-.7447h22.5277c.8165.0248 1.6087.2832 2.2827.7447s1.2015 1.1067 1.5199 1.8589l3.5771 9.2254c1.2773.4556 2.3839 1.2923 3.1703 2.3971s1.2146 2.4244 1.2268 3.7804v9.3104c-.0008.4113-.1646.8054-.4554 1.0963-.2909.2908-.685.4545-1.0963.4554h-2.192v4.825c-.0009.4113-.1647.8055-.4555 1.0963s-.685.4546-1.0962.4555h-3.195c-.4112-.0009-.8054-.1647-1.0963-.4555-.2908-.2908-.4545-.685-.4554-1.0963v-4.825h-25.9971v4.825c-.0009.4113-.1646.8055-.4554 1.0963-.2909.2908-.685.4546-1.0963.4555h-3.19494c-.41127-.0009-.80546-.1647-1.09628-.4555s-.45458-.685-.45544-1.0963v-4.825h-2.19202c-.41127-.0009-.80546-.1646-1.09628-.4554-.29082-.2909-.45458-.685-.45544-1.0963zm10.2577.0196c0-.6655-.1973-1.316-.5671-1.8693-.3697-.5534-.8952-.9847-1.51-1.2393-.61486-.2547-1.29141-.3213-1.94412-.1915-.6527.1298-1.25225.4503-1.72282.9209-.47058.4705-.79104 1.0701-.92088 1.7228-.12983.6527-.06319 1.3292.19148 1.9441.25467.6148.68595 1.1403 1.23928 1.5101.55334.3697 1.20389.567 1.86938.567.44187 0 .87942-.087 1.28768-.2561.4082-.1691.7791-.4169 1.0916-.7294.3124-.3124.5603-.6834.7294-1.0916s.2561-.8458.2561-1.2877zm-1.8196-6.6087h29.1986l-2.9075-7.5038c-.1035-.1468-.2567-.2512-.4312-.294h-22.5212c-.1721.0442-.3228.1485-.4247.294zm34.1085 6.6087c0-.6656-.1974-1.3163-.5673-1.8697-.3698-.5534-.8955-.9847-1.5106-1.2392-.615-.2546-1.2917-.3211-1.9445-.191s-1.2523.4509-1.7228.9218c-.4704.4709-.7906 1.0708-.9201 1.7237-.1294.6529-.0623 1.3296.1928 1.9444.2552.6147.687 1.14 1.2408 1.5093.5537.3694 1.2046.5662 1.8702.5655.8924 0 1.7483-.3545 2.3793-.9855s.9822-1.4869.9822-2.3793z" fill="#080a08"/></g></svg>

<svg width="48" height="60" viewBox="0 0 48 60" fill="none" xmlns="http://www.w3.org/2000/svg">
<g id="auto-svgrepo-com 1" clip-path="url(#clip0_24_1283)">
<path id="Vector" d="M2 31.0065C2.01242 29.6501 2.44113 28.3302 3.22813 27.2254C4.01514 26.1205 5.12247 25.284 6.40036 24.829L9.97423 15.6036C10.2926 14.8514 10.8201 14.2062 11.4941 13.7447C12.1681 13.2832 12.9603 13.0248 13.7768 13H36.3045C37.121 13.0248 37.9132 13.2832 38.5872 13.7447C39.2612 14.2062 39.7887 14.8514 40.1071 15.6036L43.6842 24.829C44.9615 25.2846 46.0681 26.1213 46.8545 27.2261C47.6409 28.3309 48.0691 29.6505 48.0813 31.0065V40.3169C48.0805 40.7282 47.9167 41.1223 47.6259 41.4132C47.335 41.704 46.9409 41.8677 46.5296 41.8686H44.3376V46.6936C44.3367 47.1049 44.1729 47.4991 43.8821 47.7899C43.5913 48.0807 43.1971 48.2445 42.7859 48.2454H39.5909C39.1797 48.2445 38.7855 48.0807 38.4946 47.7899C38.2038 47.4991 38.0401 47.1049 38.0392 46.6936V41.8686H12.0421V46.6936C12.0412 47.1049 11.8775 47.4991 11.5867 47.7899C11.2958 48.0807 10.9017 48.2445 10.4904 48.2454H7.29546C6.88419 48.2445 6.49 48.0807 6.19918 47.7899C5.90836 47.4991 5.7446 47.1049 5.74374 46.6936V41.8686H3.55172C3.14045 41.8677 2.74626 41.704 2.45544 41.4132C2.16462 41.1223 2.00086 40.7282 2 40.3169V31.0065ZM12.2577 31.0261C12.2577 30.3606 12.0604 29.7101 11.6906 29.1568C11.3209 28.6034 10.7954 28.1721 10.1806 27.9175C9.56574 27.6628 8.88919 27.5962 8.23648 27.726C7.58378 27.8558 6.98423 28.1763 6.51366 28.6469C6.04308 29.1174 5.72262 29.717 5.59278 30.3697C5.46295 31.0224 5.52959 31.6989 5.78426 32.3138C6.03893 32.9286 6.47021 33.4541 7.02354 33.8239C7.57688 34.1936 8.22743 34.3909 8.89292 34.3909C9.33479 34.3909 9.77234 34.3039 10.1806 34.1348C10.5888 33.9657 10.9597 33.7179 11.2722 33.4054C11.5846 33.093 11.8325 32.722 12.0016 32.3138C12.1707 31.9056 12.2577 31.468 12.2577 31.0261ZM10.4381 24.4174H39.6367L36.7292 16.9136C36.6257 16.7668 36.4725 16.6624 36.298 16.6196H13.7768C13.6047 16.6638 13.454 16.7681 13.3521 16.9136L10.4381 24.4174ZM44.5466 31.0261C44.5466 30.3605 44.3492 29.7098 43.9793 29.1564C43.6095 28.603 43.0838 28.1717 42.4687 27.9172C41.8537 27.6626 41.177 27.5961 40.5242 27.7262C39.8714 27.8563 39.2719 28.1771 38.8014 28.648C38.331 29.1189 38.0108 29.7188 37.8813 30.3717C37.7519 31.0246 37.819 31.7013 38.0741 32.3161C38.3293 32.9308 38.7611 33.4561 39.3149 33.8254C39.8686 34.1948 40.5195 34.3916 41.1851 34.3909C42.0775 34.3909 42.9334 34.0364 43.5644 33.4054C44.1954 32.7744 44.5466 31.9185 44.5466 31.0261Z" fill="#080A08"/>
</g>
<defs>
<clipPath id="clip0_24_1283">
<rect width="62.069" height="62.069" fill="white" transform="translate(-14.4828)"/>
</clipPath>
</defs>
</svg>
